assets/icomoon/mono.svg

<svg viewBox="0 0 24 24" xmlns="http://www.w3.org/2000/svg"><path d="m12 0c-1.66 0-3.21.313-4.66.938a12 12 0 0 0 -3.84 2.562 12 12 0 0 0 -2.563 3.84c-.624 1.45-.937 3-.937 4.66s.313 3.21.938 4.66a12 12 0 0 0 2.562 3.84 12 12 0 0 0 3.84 2.56c1.45.63 3 .94 4.66.94s3.21-.31 4.66-.94a12 12 0 0 0 3.84-2.56 12 12 0 0 0 2.56-3.84c.63-1.45.94-3 .94-4.66s-.31-3.21-.94-4.66a12 12 0 0 0 -2.56-3.84 12 12 0 0 0 -3.84-2.563c-1.45-.624-3-.937-4.66-.937m-3.12 1.5a11.65 11.65 0 0 1 2.49 1.92 12.31 12.31 0 0 1 1.9 2.45c.53.9.93 1.86 1.23 2.9.28 1.03.43 2.11.43 3.23s-.15 2.2-.43 3.23a11.71 11.71 0 0 1 -1.23 2.9 12.31 12.31 0 0 1 -1.9 2.45c-.75.75-1.58 1.38-2.49 1.92a11.91 11.91 0 0 1 -2.46-1.92 12.31 12.31 0 0 1 -1.92-2.45 11.71 11.71 0 0 1 -1.19-2.9 11.63 11.63 0 0 1 -.45-3.23c0-1.12.14-2.2.45-3.23a11.71 11.71 0 0 1 1.19-2.9 12.31 12.31 0 0 1 1.92-2.45c.75-.75 1.58-1.38 2.46-1.92m-.02 7.73c-.77 0-1.42.27-1.96.81a2.67 2.67 0 0 0 -.81 1.96c0 .77.27 1.42.81 1.96s1.19.81 1.96.81 1.42-.27 1.96-.81.81-1.19.81-1.96-.27-1.42-.81-1.96a2.67 2.67 0 0 0 -1.96-.81z"/></svg>

<svg xmlns="http://www.w3.org/2000/svg" viewBox="0 0 24 24"><path d="M12 0c-1.66 0-3.21.313-4.66.938A12 12 0 0 0 3.5 3.5 12 12 0 0 0 .937 7.34C.313 8.79 0 10.34 0 12s.313 3.21.938 4.66A12 12 0 0 0 3.5 20.5a12 12 0 0 0 3.84 2.56c1.45.63 3 .94 4.66.94s3.21-.31 4.66-.94a12 12 0 0 0 3.84-2.56 12 12 0 0 0 2.56-3.84c.63-1.45.94-3 .94-4.66s-.31-3.21-.94-4.66A12 12 0 0 0 20.5 3.5 12 12 0 0 0 16.66.937C15.21.313 13.66 0 12 0M8.88 1.5a11.7 11.7 0 0 1 2.49 1.92 12.3 12.3 0 0 1 1.9 2.45c.53.9.93 1.86 1.23 2.9.28 1.03.43 2.11.43 3.23s-.15 2.2-.43 3.23a11.7 11.7 0 0 1-1.23 2.9 12.3 12.3 0 0 1-1.9 2.45c-.75.75-1.58 1.38-2.49 1.92a12 12 0 0 1-2.46-1.92 12.3 12.3 0 0 1-1.92-2.45 11.7 11.7 0 0 1-1.19-2.9A11.6 11.6 0 0 1 2.86 12c0-1.12.14-2.2.45-3.23a11.7 11.7 0 0 1 1.19-2.9 12.3 12.3 0 0 1 1.92-2.45C7.17 2.67 8 2.04 8.88 1.5m-.02 7.73c-.77 0-1.42.27-1.96.81A2.67 2.67 0 0 0 6.09 12c0 .77.27 1.42.81 1.96s1.19.81 1.96.81 1.42-.27 1.96-.81.81-1.19.81-1.96-.27-1.42-.81-1.96a2.67 2.67 0 0 0-1.96-.81"/></svg>
